!!!COM: Lassus, Orlandus
!!!CDT: 1532-1594/06/14
!!!OPR: Geistliche Psalmen mit dreyen Stimmen
!!!ONM: 13
!!!OTL@@LA: Dixit insipiens
!!!OTL-incipit@@DE: Die thoren sprechen wol on schertzen
**kern	**text	**kern	**text	**kern	**text
*staff3	*staff3	*staff2	*staff2	*staff1	*staff1
*Ivox	*	*Ivox	*	*Ivox	*
*I"Bassus	*	*I"Tenor	*	*I"Cantus	*
*I'B	*	*I'T	*	*I'C	*
*clefC4	*	*clefC3	*	*clefC1	*
*k[b-]	*	*k[b-]	*	*k[b-]	*
*g:dor	*	*g:dor	*	*g:dor	*
*M2/1	*	*M2/1	*	*M2/1	*
*met(C|)	*	*met(C|)	*	*met(C|)	*
*MM180	*	*MM180	*	*MM180	*
=1	=1	=1	=1	=1	=1
*xywh-#139:112,40,2709,542	*	*xywh-#83:129,103,2661,518	*	*xywh-#23:107,56,2720,557	*
0r	.	1c	Die	1r	.
.	.	2c	tho-	1g	Die
.	.	2c	-ren	.	.
=2	=2	=2	=2	=2	=2
1r	.	1.e-	spre-	2g	tho-
.	.	.	.	2g	-ren
1G	Die	.	.	2.b-	spre-
.	.	2d	-chen	.	.
.	.	.	.	4cc	.
=3	=3	=3	=3	=3	=3
2G	tho-	2.B-	wol	4dd	.
.	.	.	.	4ee-i	.
2G	-ren	.	.	2.dd	.
.	.	4A	.	.	.
2B-	spre-	2G	.	.	.
.	.	.	.	4dd	-chen
2G	-chen	2.d	on	2b-	wol
=4	=4	=4	=4	=4	=4
!! cadence start
2F#	wol	.	.	2a	on
.	.	4c	.	.	.
2G	on	2B-	.	2.g	scher-
2D	scher-	1A	scher-	.	.
.	.	.	.	8f#i	.
.	.	.	.	8e	.
2D	-tzen/	.	.	2f#i	.
=5	=5	=5	=5	=5	=5
2r	.	1G	-tzen/	2g	-tzen/
!! cadence end; ultima=g
!	!	!	!	!LO:TX:a:i:t=c.f.	!
2E	haim̃-	.	.	2g	heim-
*	*	*	*	*xywh-#23:100,609,2728,417	*
1F	-lich	2r	.	1.a	-lich
.	.	2c	Heim-	.	.
=6	=6	=6	=6	=6	=6
*xywh-#139:107,551,2722,457	*	*xywh-#83:105,599,2697,422	*	*	*
2r	.	2d	-lich	.	.
2C	haim̃-	2e	in	2g	in
1D	-lich	4A	jh-	2f	jh-
.	.	4A	-rem	.	.
!! cadence start
.	.	2f	bö-	2a	-rem
=7	=7	=7	=7	=7	=7
2r	.	2e	-sen	2g	bö-
2B-	in	2.d	her-	2f	-sen
2G	jh-	.	.	1e	her-
.	.	8c#i	.	.	.
.	.	8Bni	.	.	.
2A	-rem	2c#i	.	.	.
=8	=8	=8	=8	=8	=8
2.B-	bö-	2d	-tzen/	1d	-tzen/
!! cadence end; ultima=d
.	.	2G	Im	.	.
4B-	-sen	.	.	.	.
1G	her-	1.B-	Hi-	2r	.
.	.	.	.	2d	im
=9	=9	=9	=9	=9	=9
1D	-tzen/	.	.	1.f	Hi-
.	.	2A	-mel	.	.
2r	.	2B-	ist	.	.
!! cadence start
2C	im	2c	kein	2e	-mel
=10	=10	=10	=10	=10	=10
2D	Hi-	1B-	Gott/	2f	ist
2E	-mel	.	.	2g	kein
2F	ist	2r	.	1a	Gott/
!! cadence end; ultima=f
2D	kein	2f	sie	.	.
=11	=11	=11	=11	=11	=11
2A	Gott/	2e	sind	2r	.
2d	sie	2f	ver-	2a	sie
*	*	*xywh-#83:99,1005,2714,432	*	*	*
2G	sind	2d	-derbt	2b-	sind
2d	ver-	2f	an	2a	ver-
=12	=12	=12	=12	=12	=12
2A	-derbt	4e	al-	2cc	-derbt
.	.	2f	-len	.	.
!! cadence start
2B-	an	.	.	2dd	an
.	.	8e	.	.	.
.	.	8d	.	.	.
*	*	*	*	*xywh-#23:92,1015,2723,439	*
4A	al-	4e	.	4cc	al-
4F	-len	2f	ör-	4a	-len
2G	ör-	.	.	2b-	ör-
.	.	4e	.	.	.
=13	=13	=13	=13	=13	=13
*xywh-#139:103,970,2735,444	*	*	*	*	*
2F	-ten/	1f	-ten/	2a	-ten/
!! cadence end; ultima=f
2D	sind	.	.	2a	sind
2.B-	gar	2r	.	1.f	gar
!	!	!LO:TX:a:i:t=c.f.	!	!	!
.	.	2d	sind	.	.
4c	.	.	.	.	.
=14	=14	=14	=14	=14	=14
4d	.	1.B-	gar	.	.
4D	.	.	.	.	.
4E-	.	.	.	2g	zu
4F	.	.	.	.	.
2G	.	.	.	2b-	ei-
2F	zu	2c	zu	2a	-nem
=15	=15	=15	=15	=15	=15
2c	ei-	2e-i	ei-	1g	grew-
2B-	-nem	2d	-nem	.	.
!! cadence start
2F	grew-	2c	grew-	2a	-el
2G	-el	2B-	-el	2.b-	wor-
=16	=16	=16	=16	=16	=16
2F	wor-	1c	wor-	.	.
.	.	.	.	8a	.
.	.	.	.	8g	.
2F	-den/	.	.	2a	.
2r	.	2B-	-den/	2.b-	.
!! cadence end; ultima=b-
2B-	in	2d	in	.	.
.	.	.	.	8a	.
.	.	.	.	8g	.
=17	=17	=17	=17	=17	=17
*	*	*xywh-#83:92,1394,2714,455	*	*	*
2B-	jh-	2d	jh-	0f	den/
2A	-rer	2c	-rer	.	.
2d	mis-	2B-	mis-	.	.
2B-	-se-	2d	-se-	.	.
=18	=18	=18	=18	=18	=18
*xywh-#139:97,1383,2761,468	*	*	*	*	*
1B-	-that	1G	-that	2r	.
*	*	*	*ij	*	*
.	.	.	.	2dd	in
*	*	*	*	*xywh-#23:85,1384,2738,466	*
2r	.	1g	in	2dd	jh-
*	*ij	*	*	*	*
2e-i	in	.	.	2cc	-rer
=19	=19	=19	=19	=19	=19
*	*	*	*	*lig	*
2e-i	jh-	2g	jh-	1b-	mis-
2d	-rer	2f	-rer	.	.
!! cadence start
2c	mis-	2e-i	mis-	1cc	.
*	*	*	*	*Xlig	*
2c	-se-	2.g	-se-	.	.
=20	=20	=20	=20	=20	=20
1d	-that	.	.	1a	-se-
*	*Xij	*	*	*	*
.	.	8f#i	.	.	.
.	.	8e	.	.	.
.	.	2f#i	.	.	.
2r	.	4g	.	2g	-that/
!! cadence end; ultima=g
.	.	8fny	.	.	.
.	.	8e	.	.	.
2B-	in	4d	.	2dd	in
.	.	4e	.	.	.
=21	=21	=21	=21	=21	=21
*	*	*xywh-#83:99,1806,2724,592	*	*	*
2B-	jh-	1f	-that	2dd	jh-
*	*	*	*Xij	*	*
2A	-rer	.	.	2cc	-rer
2G	mis-	2r	.	2b-	mis-
!! cadence start
!	!	!LO:TX:a:i:t=c.f.	!	!	!
2B-	-se-	2d	in	4f	-se-
.	.	.	.	4g	.
=22	=22	=22	=22	=22	=22
1F	-that.	2d	jh-	4a	.
.	.	.	.	2b-	.
.	.	2c	-rer	.	.
.	.	.	.	4a	.
*	*ij	*lig	*	*	*
2G	in	1B-	mis-	4b-	-that/
!! cadence end; ultima=b-
.	.	.	.	4dd	in
2G	jh-	.	.	4b-	jh-
.	.	.	.	4g	-rer
=23	=23	=23	=23	=23	=23
!! cadence start
2F	-rer	1c	.	2a	mis-
*	*	*Xlig	*	*	*
2E-	mis-	.	.	2.g	-se-
1D	-se-	1A	-se-	.	.
.	.	.	.	8f#i	.
.	.	.	.	8e	.
.	.	.	.	2f#i	.
=24	=24	=24	=24	=24	=24
0Gll	-that.	0Gll	-that.	0gll	that.
!! cadence end; ultima=g
*	*Xij	*	*	*	*
==	==	==	==	==	==
*-	*-	*-	*-	*-	*-
!!!RDF**kern: l = terminal long
!!!RDF**kern: i = editorial accidental
!!!AGN: Psalm; Tricinium
!!!LIB: Ulenberg, Caspar
!!!LIB-CDT: 1548/12/24-1617/02/16
!!!YOR: https://mdz-nbn-resolving.de/details:bsb00075346
!!!YOO: München, Bayerische Staatsbibliothek
!!!URL-scan: https://www.digitale-sammlungen.de/de/view/bsb00075346?page=23 Cantus
!!!URL-scan: https://www.digitale-sammlungen.de/de/view/bsb00075346?page=83 Tenor
!!!URL-scan: https://www.digitale-sammlungen.de/de/view/bsb00075346?page=139 Bassus
!!!IIIF: https://api.digitale-sammlungen.de/iiif/presentation/v2/bsb00075346/manifest
!!!EED: Wolfgang Drescher
!!!END: 2023/03/02
!!!ENC: Wolfgang Drescher
!!!EEV: 2023/03/02
!!!title: @{ONM}. @{OTL} / <i>@{OTL-incipit@@DE}</i>